svgs/sharp-solid/piano.svg

<svg xmlns="http://www.w3.org/2000/svg" viewBox="0 0 512 512"><!--! Font Awesome Pro 6.6.0 by @fontawesome - https://fontawesome.com License - https://fontawesome.com/license (Commercial License) Copyright 2024 Fonticons, Inc. --><path d="M0 192L0 512l512 0 0-224L384 224l0-32C384 86 298 0 192 0S0 86 0 192zM416 352l32 0 0 96L64 448l0-96 32 0 0 48 0 16 32 0 0-16 0-48 32 0 0 48 0 16 32 0 0-16 0-48 32 0 0 48 0 16 32 0 0-16 0-48 64 0 0 48 0 16 32 0 0-16 0-48 32 0 0 48 0 16 32 0 0-16 0-48z"/></svg>

<svg xmlns="http://www.w3.org/2000/svg" viewBox="0 0 512 512"><!--! Font Awesome Pro 6.4.0 by @fontawesome - https://fontawesome.com License - https://fontawesome.com/license (Commercial License) Copyright 2023 Fonticons, Inc. --><path d="M0 192V512H512V288L384 224V192C384 86 298 0 192 0S0 86 0 192zM416 352h32v96H64V352H96v48 16h32V400 352h32v48 16h32V400 352h32v48 16h32V400 352h64v48 16h32V400 352h32v48 16h32V400 352z"/></svg>
